X: 02096
T: PATTY'S PARTY
C: Bob McQuillen Jan'75
B: Bob's Note Book 1&2 #96
R: jig
Z: 2019 John Chambers <jc:trillian.mit.edu>
M: 6/8
L: 1/8
K: D
A \
| def edc | Bcd AFA | def gfe | dcd e2A |\
| def edc | Bcd AFA | def eag | fdd d2 :|
|: A \
| DFA FAF | DFA A2F | DFA dcB | AGF EFE |\
| DFA FAF | DFA A2d | Bcd AGF | EDC D2 :|
%%begintext align
%% For Patty Laufman with
%% many thanks - Wolf Trap
%% River Hill Grange: Turkey yummy!
%%endtext

%%sep 1 1 500

%%sep 1 1 500

